img/image/logo-footer.svg

<svg width="120" height="50" viewBox="0 0 120 50" fill="none" xmlns="http://www.w3.org/2000/svg">
<g opacity="0.7">
<path d="M44.88 39V38.6L45.72 38.32C46.2533 38.1333 46.6 37.8933 46.76 37.6C46.92 37.28 47 36.84 47 36.28V15.36C47 14.8267 46.92 14.4133 46.76 14.12C46.6267 13.8 46.3067 13.5467 45.8 13.36L44.88 13V12.6H56.32C59.4667 12.6 61.88 13.2 63.56 14.4C65.24 15.5733 66.08 17.2133 66.08 19.32C66.08 20.4933 65.64 21.6667 64.76 22.84C63.88 24.0133 62.4933 24.92 60.6 25.56L66.16 36.6C66.4 37.0533 66.6667 37.4267 66.96 37.72C67.28 37.9867 67.6933 38.2267 68.2 38.44L68.72 38.64V39H61.56L55.64 26.4H52.92V36.28C52.92 36.7867 53 37.2 53.16 37.52C53.32 37.84 53.6533 38.08 54.16 38.24L55.12 38.6V39H44.88ZM52.92 25.6H54.84C56.76 25.6 58.1467 25.0933 59 24.08C59.8533 23.04 60.28 21.5067 60.28 19.48C60.28 17.4267 59.88 15.9067 59.08 14.92C58.28 13.9067 56.9333 13.4 55.04 13.4H52.92V25.6ZM82.8959 39.72C80.1759 39.72 77.7759 39.16 75.6959 38.04C73.6426 36.8933 72.0293 35.28 70.8559 33.2C69.7093 31.0933 69.1359 28.6133 69.1359 25.76C69.1359 22.9867 69.7093 20.56 70.8559 18.48C72.0026 16.4 73.6559 14.7867 75.8159 13.64C78.0026 12.4667 80.6426 11.88 83.7359 11.88C85.1493 11.88 86.4559 12.04 87.6559 12.36C88.8826 12.68 90.0426 13.1467 91.1359 13.76L91.2959 19.36H90.8959L88.6559 15.2C88.3093 14.5333 87.9893 14.0533 87.6959 13.76C87.4026 13.4667 87.0293 13.24 86.5759 13.08C86.1493 12.9467 85.7493 12.8533 85.3759 12.8C85.0293 12.72 84.5626 12.68 83.9759 12.68C82.3226 12.68 80.8559 13.12 79.5759 14C78.3226 14.88 77.3493 16.28 76.6559 18.2C75.9626 20.12 75.6159 22.64 75.6159 25.76C75.6159 28.8533 75.9359 31.3733 76.5759 33.32C77.2426 35.2667 78.1759 36.6933 79.3759 37.6C80.5759 38.48 81.9626 38.92 83.5359 38.92C83.7759 38.92 84.0026 38.9067 84.2159 38.88C84.4559 38.8267 84.6826 38.7733 84.8959 38.72C85.4026 38.64 85.7359 38.4267 85.8959 38.08C86.0559 37.7333 86.1359 37.32 86.1359 36.84V28.92C86.1359 27.88 85.6026 27.24 84.5359 27L82.6959 26.52V26.12H93.9759V26.52L93.4159 26.68C92.4026 27 91.8959 27.6667 91.8959 28.68V37.36C90.5093 38.1333 89.0959 38.72 87.6559 39.12C86.2426 39.52 84.6559 39.72 82.8959 39.72ZM109.617 39.72C107.03 39.72 104.683 39.2 102.577 38.16C100.497 37.0933 98.8432 35.52 97.6166 33.44C96.3899 31.36 95.7766 28.8133 95.7766 25.8C95.7766 23.5067 96.1499 21.4933 96.8966 19.76C97.6432 18.0267 98.6566 16.5733 99.9366 15.4C101.243 14.2267 102.737 13.3467 104.417 12.76C106.123 12.1733 107.923 11.88 109.817 11.88C111.337 11.88 112.737 12.0533 114.017 12.4C115.297 12.7467 116.497 13.2267 117.617 13.84L117.777 18.76H117.377L115.377 15.56C115.11 15.0533 114.817 14.6 114.497 14.2C114.177 13.7733 113.777 13.4533 113.297 13.24C112.897 13.0533 112.497 12.92 112.097 12.84C111.723 12.7333 111.243 12.68 110.657 12.68C109.11 12.68 107.697 13.0933 106.417 13.92C105.163 14.7467 104.15 16.12 103.377 18.04C102.63 19.9333 102.257 22.5333 102.257 25.84C102.257 29.12 102.617 31.72 103.337 33.64C104.057 35.5333 105.03 36.8933 106.257 37.72C107.51 38.52 108.91 38.92 110.457 38.92C111.31 38.92 111.99 38.8667 112.497 38.76C113.003 38.6267 113.51 38.44 114.017 38.2C114.523 37.9867 114.91 37.68 115.177 37.28C115.443 36.8533 115.683 36.4 115.897 35.92L117.657 32H118.057L117.937 37.72C116.817 38.3067 115.563 38.7867 114.177 39.16C112.79 39.5333 111.27 39.72 109.617 39.72Z" fill="#111010"/>
<path d="M0 42.0003H13.4588V32.499C13.4588 30.4853 15.0898 28.8543 17.1035 28.8543C19.1172 28.8543 20.7482 30.4853 20.7482 32.499V42.0003H33.9975V8C15.2211 8 0 23.2211 0 42.0003Z" fill="url(#paint0_linear_246_29)"/>
</g>
<defs>
<linearGradient id="paint0_linear_246_29" x1="-8.53618" y1="25.0001" x2="59.6061" y2="25.0001" gradientUnits="userSpaceOnUse">
<stop stop-color="#EDD49D"/>
<stop offset="1" stop-color="#E7D39E"/>
</linearGradient>
</defs>
</svg>

<svg width="120" height="50" fill="none" xmlns="http://www.w3.org/2000/svg"><g opacity=".7"><path d="M44.88 39v-.4l.84-.28c.533-.187.88-.427 1.04-.72.16-.32.24-.76.24-1.32V15.36c0-.533-.08-.947-.24-1.24-.133-.32-.453-.573-.96-.76l-.92-.36v-.4h11.44c3.147 0 5.56.6 7.24 1.8 1.68 1.173 2.52 2.813 2.52 4.92 0 1.173-.44 2.347-1.32 3.52-.88 1.173-2.267 2.08-4.16 2.72l5.56 11.04c.24.453.507.827.8 1.12.32.267.733.507 1.24.72l.52.2V39h-7.16l-5.92-12.6h-2.72v9.88c0 .507.08.92.24 1.24.16.32.493.56 1 .72l.96.36v.4H44.88Zm8.04-13.4h1.92c1.92 0 3.307-.507 4.16-1.52.853-1.04 1.28-2.573 1.28-4.6 0-2.053-.4-3.573-1.2-4.56-.8-1.013-2.147-1.52-4.04-1.52h-2.12v12.2Zm29.976 14.12c-2.72 0-5.12-.56-7.2-1.68-2.053-1.147-3.667-2.76-4.84-4.84-1.147-2.107-1.72-4.587-1.72-7.44 0-2.773.573-5.2 1.72-7.28s2.8-3.693 4.96-4.84c2.187-1.173 4.827-1.76 7.92-1.76 1.413 0 2.72.16 3.92.48a14.63 14.63 0 0 1 3.48 1.4l.16 5.6h-.4l-2.24-4.16c-.347-.667-.667-1.147-.96-1.44a2.937 2.937 0 0 0-1.12-.68 7.688 7.688 0 0 0-1.2-.28c-.347-.08-.813-.12-1.4-.12-1.653 0-3.12.44-4.4 1.32-1.253.88-2.227 2.28-2.92 4.2-.693 1.92-1.04 4.44-1.04 7.56 0 3.093.32 5.613.96 7.56.667 1.947 1.6 3.373 2.8 4.28 1.2.88 2.587 1.32 4.16 1.32.24 0 .467-.013.68-.04.24-.053.467-.107.68-.16.507-.08.84-.293 1-.64.16-.347.24-.76.24-1.24v-7.92c0-1.04-.533-1.68-1.6-1.92l-1.84-.48v-.4h11.28v.4l-.56.16c-1.013.32-1.52.987-1.52 2v8.68c-1.387.773-2.8 1.36-4.24 1.76-1.413.4-3 .6-4.76.6Zm26.721 0c-2.587 0-4.934-.52-7.04-1.56-2.08-1.067-3.734-2.64-4.96-4.72-1.227-2.08-1.84-4.627-1.84-7.64 0-2.293.373-4.307 1.12-6.04.746-1.733 1.76-3.187 3.04-4.36a13.1 13.1 0 0 1 4.48-2.64 16.488 16.488 0 0 1 5.4-.88c1.52 0 2.92.173 4.2.52 1.28.347 2.48.827 3.6 1.44l.16 4.92h-.4l-2-3.2a8.549 8.549 0 0 0-.88-1.36 3.003 3.003 0 0 0-1.2-.96c-.4-.187-.8-.32-1.2-.4-.374-.107-.854-.16-1.44-.16-1.547 0-2.96.413-4.24 1.24-1.254.827-2.267 2.2-3.04 4.12-.747 1.893-1.12 4.493-1.12 7.8 0 3.28.36 5.88 1.08 7.8.72 1.893 1.693 3.253 2.92 4.08 1.253.8 2.653 1.2 4.2 1.2.853 0 1.533-.053 2.04-.16a8.782 8.782 0 0 0 1.52-.56c.506-.213.893-.52 1.16-.92.266-.427.506-.88.72-1.36l1.76-3.92h.4l-.12 5.72c-1.12.587-2.374 1.067-3.76 1.44-1.387.373-2.907.56-4.56.56Z" fill="#111010"/><path d="M0 42h13.459V32.5a3.644 3.644 0 0 1 3.645-3.645 3.644 3.644 0 0 1 3.644 3.645V42h13.25V8C15.22 8 0 23.221 0 42Z" fill="url(#a)"/></g><defs><linearGradient id="a" x1="-8.536" y1="25" x2="59.606" y2="25" gradientUnits="userSpaceOnUse"><stop stop-color="#EDD49D"/><stop offset="1" stop-color="#E7D39E"/></linearGradient></defs></svg>
